icons/txt.svg

<svg width="16" height="16" viewBox="0 0 16 16" fill="none" xmlns="http://www.w3.org/2000/svg">
<path fill-rule="evenodd" clip-rule="evenodd" d="M9.79 2.29C10.47 3 12 4.53 12.7 5.21C12.8884 5.39463 12.9962 5.64623 13 5.91V13C13 13.2652 12.8946 13.5196 12.7071 13.7071C12.5196 13.8946 12.2652 14 12 14H4C3.73478 14 3.48043 13.8946 3.29289 13.7071C3.10536 13.5196 3 13.2652 3 13V3C3 2.73478 3.10536 2.48043 3.29289 2.29289C3.48043 2.10536 3.73478 2 4 2H9.09C9.35234 2.0011 9.60374 2.10526 9.79 2.29ZM5 5H9V6H5V5ZM5 7H11V8H5V7ZM11 9H5V10H11V9Z" fill="#6DC85E"/>
</svg>

<svg xmlns="http://www.w3.org/2000/svg" width="16" height="16" fill="none"><path fill="#6DC85E" fill-rule="evenodd" d="M9.79 2.29C10.47 3 12 4.53 12.7 5.21a1 1 0 0 1 .3.7V13a1 1 0 0 1-1 1H4a1 1 0 0 1-1-1V3a1 1 0 0 1 1-1h5.09a1 1 0 0 1 .7.29ZM5 5h4v1H5V5Zm0 2h6v1H5V7Zm6 2H5v1h6V9Z" clip-rule="evenodd"/></svg>
